img/headerServices/1.svg

<svg width="46" height="46" viewBox="0 0 46 46" fill="none" xmlns="http://www.w3.org/2000/svg">
<path d="M12.4531 8.23438C12.4531 5.90773 10.561 4.01562 8.23438 4.01562C5.90773 4.01562 4.01562 5.90773 4.01562 8.23438C4.01562 10.561 5.90773 12.4531 8.23438 12.4531C10.561 12.4531 12.4531 10.561 12.4531 8.23438ZM5.42188 8.23438C5.42188 6.68328 6.68328 5.42188 8.23438 5.42188C9.78547 5.42188 11.0469 6.68328 11.0469 8.23438C11.0469 9.78547 9.78547 11.0469 8.23438 11.0469C6.68328 11.0469 5.42188 9.78547 5.42188 8.23438Z" fill="#4D7B7D"/>
<path d="M39.0818 5.9231L40.0762 4.92873L41.0706 5.9231L40.0762 6.91746L39.0818 5.9231Z" fill="#4D7B7D"/>
<path d="M37.093 7.91113L38.0873 6.91676L39.0817 7.91113L38.0873 8.9055L37.093 7.91113Z" fill="#4D7B7D"/>
<path d="M35.155 9.84961L36.0991 8.90546L37.0935 9.89983L36.1493 10.844L35.155 9.84961Z" fill="#4D7B7D"/>
<path d="M42.6875 30.7343H38.7873C39.9608 28.3388 40.5781 25.6894 40.5781 22.9999C40.5781 19.4281 39.5122 16.0256 37.5118 13.1027C38.0427 12.7322 38.5609 12.3434 39.065 11.9349L43.3906 16.2598L44.8981 14.7523L42.7887 8.42345L43.0138 8.19845C43.7105 7.50306 44.0938 6.57774 44.0938 5.59196C44.0938 3.55993 42.44 1.90618 40.4073 1.90618C39.4236 1.90618 38.4976 2.28938 37.8008 2.98478L37.5744 3.21118L31.247 1.10181L29.7402 2.60931L34.0658 6.93493C33.6566 7.43837 33.2684 7.95728 32.8979 8.48743C29.9743 6.48774 26.5719 5.42181 23 5.42181C20.2824 5.42181 17.6042 6.05251 15.189 7.25063C14.708 3.83907 11.7767 1.20306 8.23438 1.20306C4.35734 1.20306 1.20312 4.35728 1.20312 8.23431V8.42767C1.20312 9.81985 1.61164 11.1684 2.38438 12.3279L6.15805 17.9881C5.6757 19.6088 5.42188 21.292 5.42188 22.9999C5.42188 25.1909 5.81914 27.3143 6.5982 29.3281H6.125C4.96203 29.3281 4.01562 30.2745 4.01562 31.4374C4.01562 32.3529 4.60555 33.1263 5.42188 33.4174V34.9531H1.20312V37.3078C1.20312 41.4373 4.56266 44.7968 8.69211 44.7968H16.475C19.3641 44.7968 21.9755 43.1107 23.2116 40.5724C25.3273 40.5478 27.3798 40.1555 29.3288 39.4017V42.6874C29.3288 43.8504 30.2752 44.7968 31.4382 44.7968H42.6882C43.8512 44.7968 44.7976 43.8504 44.7976 42.6874V32.8437C44.7969 31.6807 43.8505 30.7343 42.6875 30.7343ZM34.9531 32.1406H39.1719V33.5468H34.9531V32.1406ZM31.4375 30.7343H29.338C29.7451 28.6081 29.9863 26.2315 30.0242 23.7031H39.1487C39.0418 26.1689 38.3731 28.5771 37.1961 30.7343H31.4375ZM23.6813 39.0298L23.7031 37.7656H20.622L18.3798 33.2803C18.8312 33.0335 19.1799 32.6306 19.355 32.1406H27.5893C26.6387 35.9276 25.1586 38.4307 23.6813 39.0298ZM19.355 30.7343C19.1173 30.0677 18.5584 29.5559 17.8609 29.3899C17.5768 27.5822 17.4193 25.6753 17.3891 23.7031H28.618C28.5779 26.3025 28.317 28.672 27.905 30.7343H19.355ZM6.85484 22.2968C6.89914 21.2618 7.03133 20.2374 7.26969 19.2368C7.56148 19.3964 7.89125 19.4843 8.23438 19.4843C8.91008 19.4843 9.53727 19.1482 9.91273 18.5864L12.1262 15.2656H16.662C16.2549 17.3918 16.0138 19.7684 15.9758 22.2968H6.85484ZM18.0992 15.2656H27.9099C28.336 17.4157 28.5737 19.8091 28.6123 22.2968H17.3884C17.4291 19.6981 17.6865 17.3264 18.0992 15.2656ZM23 6.82806C24.2495 6.82806 25.5348 8.24274 26.5662 10.7051L26.0319 11.2395L26.9488 11.6979C27.1878 12.3764 27.4051 13.0957 27.5956 13.8593H18.4149C19.5139 9.4922 21.3167 6.82806 23 6.82806ZM30.7906 12.0467L28.4056 10.8542L28.8409 10.4196L31.3116 11.037C31.1302 11.3688 30.9587 11.7063 30.7906 12.0467ZM30.2 13.3235C30.1944 13.3362 30.188 13.3488 30.1824 13.3615C30.1135 13.5211 30.077 13.6891 30.0552 13.8593H29.0384C28.9344 13.4184 28.8212 12.9916 28.7016 12.5747L30.2 13.3235ZM39.1445 22.2968H30.0186C29.9813 19.8232 29.75 17.4361 29.338 15.2656H30.4517C30.7948 15.6909 31.313 15.9687 31.9009 15.9687C32.154 15.9687 32.4015 15.9181 32.6377 15.8175C32.6511 15.8119 32.663 15.8056 32.6764 15.7999L34.7605 19.9681L37.1377 17.5901L36.2279 13.95C36.2659 13.9268 36.3024 13.9015 36.3404 13.8776C38.0553 16.3786 39.0151 19.2614 39.1445 22.2968ZM34.963 14.6883L35.5803 17.1591L35.1451 17.5936L33.9526 15.2086C34.2936 15.0413 34.6311 14.8697 34.963 14.6883ZM43.1881 14.0688L40.138 11.0187C40.4916 10.7002 40.839 10.3739 41.1765 10.0357L41.6764 9.53579L43.1881 14.0688ZM40.4073 3.31243C41.6645 3.31243 42.6875 4.33478 42.6875 5.59196C42.6875 6.20157 42.4505 6.77392 42.0195 7.20423L40.1823 9.04149C37.8458 11.378 35.1205 13.223 32.0851 14.5245C31.7877 14.6496 31.4375 14.4176 31.4375 14.0991C31.4375 14.0358 31.4502 13.9739 31.4748 13.9156C32.777 10.8788 34.6213 8.15415 36.9577 5.81696L38.7943 3.9797C39.226 3.54868 39.7991 3.31243 40.4073 3.31243ZM31.9318 2.81181L36.4641 4.32282L35.9642 4.82345C35.626 5.16165 35.2998 5.50899 34.9813 5.86196L31.9318 2.81181ZM32.0492 9.77204L28.4098 8.86149L27.6378 9.63352C27.1759 8.63017 26.6647 7.79204 26.1141 7.13743C28.2629 7.55438 30.2942 8.40517 32.1223 9.65884C32.0977 9.69751 32.0724 9.73407 32.0492 9.77204ZM15.2368 8.8186C16.7056 8.01353 18.2891 7.44048 19.9309 7.12407C18.6905 8.5936 17.6619 10.9385 16.9637 13.8593H13.0634L14.0844 12.3279C14.784 11.2781 15.1672 10.0709 15.2368 8.8186ZM2.60938 8.42767V8.23431C2.60938 5.13282 5.13289 2.60931 8.23438 2.60931C11.3359 2.60931 13.8594 5.13282 13.8594 8.23431V8.42767C13.8594 9.54212 13.5324 10.6207 12.9144 11.5481L8.74203 17.8059C8.51492 18.1463 7.95313 18.1463 7.72602 17.8059L3.55367 11.5481C2.93633 10.6214 2.60938 9.54212 2.60938 8.42767ZM6.84641 23.7031H15.9828C16.0123 25.6479 16.1621 27.5323 16.4307 29.3281H8.11906C7.35758 27.5407 6.92938 25.6542 6.84641 23.7031ZM6.125 30.7343H17.375C17.7624 30.7343 18.0781 31.0493 18.0781 31.4374C18.0781 31.8256 17.7624 32.1406 17.375 32.1406H6.125C5.73758 32.1406 5.42188 31.8256 5.42188 31.4374C5.42188 31.0493 5.73758 30.7343 6.125 30.7343ZM6.82812 33.5468H16.9405L19.0498 37.7656H9.37203L7.96578 34.9531H6.82812V33.5468ZM16.475 43.3906H8.69211C5.3382 43.3906 2.60938 40.6617 2.60938 37.3078V36.3593H7.09672L8.50297 39.1718H22.2652C21.4616 41.6658 19.1089 43.3906 16.475 43.3906ZM26.0684 38.8765C27.3087 37.407 28.3381 35.0613 29.0363 32.1406H29.4575C29.3787 32.3613 29.3281 32.5962 29.3281 32.8437V37.8802C28.2734 38.3302 27.185 38.6627 26.0684 38.8765ZM43.3906 42.6874C43.3906 43.0756 43.0749 43.3906 42.6875 43.3906H31.4375C31.0501 43.3906 30.7344 43.0756 30.7344 42.6874V32.8437C30.7344 32.4556 31.0501 32.1406 31.4375 32.1406H33.5469V34.9531H40.5781V32.1406H42.6875C43.0749 32.1406 43.3906 32.4556 43.3906 32.8437V42.6874Z" fill="#4D7B7D"/>
<path d="M40.5781 40.5781H41.9844V41.9844H40.5781V40.5781Z" fill="#4D7B7D"/>
<path d="M37.7656 40.5781H39.1719V41.9844H37.7656V40.5781Z" fill="#4D7B7D"/>
<path d="M12.4531 34.9531H13.8594V36.3594H12.4531V34.9531Z" fill="#4D7B7D"/>
<path d="M15.2656 34.9531H16.6719V36.3594H15.2656V34.9531Z" fill="#4D7B7D"/>
<path d="M9.64062 34.9531H11.0469V36.3594H9.64062V34.9531Z" fill="#4D7B7D"/>
<path d="M19.4844 25.1094H20.8906V26.5156H19.4844V25.1094Z" fill="#4D7B7D"/>
<path d="M25.1094 25.1094H26.5156V26.5156H25.1094V25.1094Z" fill="#4D7B7D"/>
<path d="M22.2969 25.1094H23.7031V26.5156H22.2969V25.1094Z" fill="#4D7B7D"/>
<path d="M25.1094 19.4844H26.5156V20.8906H25.1094V19.4844Z" fill="#4D7B7D"/>
<path d="M22.2969 19.4844H23.7031V20.8906H22.2969V19.4844Z" fill="#4D7B7D"/>
<path d="M19.4844 19.4844H20.8906V20.8906H19.4844V19.4844Z" fill="#4D7B7D"/>
</svg>

<svg width="46" height="46" fill="none" xmlns="http://www.w3.org/2000/svg"><path d="M12.453 8.234a4.223 4.223 0 0 0-4.219-4.218 4.223 4.223 0 0 0-4.218 4.218 4.223 4.223 0 0 0 4.218 4.22 4.223 4.223 0 0 0 4.22-4.22Zm-7.031 0a2.815 2.815 0 0 1 2.812-2.812 2.815 2.815 0 0 1 2.813 2.812 2.815 2.815 0 0 1-2.813 2.813 2.815 2.815 0 0 1-2.812-2.813Zm33.66-2.311.994-.994.995.994-.995.994-.994-.994Zm-1.989 1.988.994-.994.995.994-.995.995-.994-.995ZM35.155 9.85l.944-.945.995.995-.945.944-.994-.994Z" fill="#4D7B7D"/><path d="M42.688 30.734h-3.9A17.596 17.596 0 0 0 40.577 23c0-3.572-1.066-6.974-3.066-9.897.53-.37 1.049-.76 1.553-1.168l4.326 4.325 1.507-1.508-2.11-6.329.226-.225a3.657 3.657 0 0 0 1.08-2.606 3.69 3.69 0 0 0-3.687-3.686c-.983 0-1.91.383-2.606 1.079l-.227.226-6.327-2.11L29.74 2.61l4.326 4.326c-.41.503-.798 1.022-1.168 1.552A17.42 17.42 0 0 0 23 5.422c-2.718 0-5.396.63-7.811 1.829-.481-3.412-3.412-6.048-6.955-6.048a7.04 7.04 0 0 0-7.03 7.031v.194a7.01 7.01 0 0 0 1.18 3.9l3.774 5.66A17.551 17.551 0 0 0 5.422 23c0 2.19.397 4.314 1.176 6.328h-.473c-1.163 0-2.11.947-2.11 2.11 0 .915.59 1.688 1.407 1.98v1.535H1.203v2.355c0 4.13 3.36 7.489 7.49 7.489h7.782c2.89 0 5.5-1.686 6.737-4.225a17.437 17.437 0 0 0 6.117-1.17v3.285c0 1.163.946 2.11 2.11 2.11h11.25a2.113 2.113 0 0 0 2.109-2.11v-9.843a2.114 2.114 0 0 0-2.11-2.11Zm-7.735 1.407h4.219v1.406h-4.219V32.14Zm-3.516-1.407h-2.099c.407-2.126.648-4.503.686-7.03h9.125a16.147 16.147 0 0 1-1.953 7.03h-5.758Zm-7.756 8.296.022-1.264h-3.081L18.38 33.28c.451-.247.8-.65.975-1.14h8.234c-.95 3.788-2.43 6.29-3.908 6.89Zm-4.326-8.296a2.109 2.109 0 0 0-1.494-1.344 40.744 40.744 0 0 1-.472-5.687h11.229c-.04 2.6-.301 4.969-.713 7.031h-8.55Zm-12.5-8.437c.044-1.035.176-2.06.415-3.06a2.015 2.015 0 0 0 2.643-.65l2.213-3.321h4.536c-.407 2.126-.648 4.502-.686 7.03H6.855Zm11.244-7.031h9.81c.427 2.15.665 4.543.703 7.03H17.388c.041-2.598.298-4.97.711-7.03ZM23 6.828c1.25 0 2.535 1.415 3.566 3.877l-.534.534.917.459c.239.678.456 1.398.647 2.161h-9.181C19.514 9.492 21.317 6.83 23 6.83Zm7.79 5.219-2.384-1.193.435-.434 2.47.617c-.18.332-.352.67-.52 1.01Zm-.59 1.276-.018.038c-.069.16-.105.328-.127.498h-1.017c-.104-.44-.217-.867-.336-1.284l1.498.748Zm8.945 8.974h-9.126c-.038-2.474-.269-4.86-.681-7.031h1.114a1.858 1.858 0 0 0 2.186.552l.038-.018 2.084 4.168 2.378-2.378-.91-3.64c.038-.023.074-.048.112-.072a16.002 16.002 0 0 1 2.804 8.419Zm-4.182-7.609.617 2.471-.435.435-1.192-2.385c.34-.168.678-.34 1.01-.52Zm8.225-.62-3.05-3.05a25.97 25.97 0 0 0 1.038-.982l.5-.5 1.512 4.533Zm-2.78-10.756a2.282 2.282 0 0 1 2.28 2.28c0 .61-.238 1.182-.669 1.612l-1.837 1.837a25.758 25.758 0 0 1-8.097 5.483.475.475 0 0 1-.648-.425.47.47 0 0 1 .038-.183 25.77 25.77 0 0 1 5.483-8.099l1.836-1.837a2.268 2.268 0 0 1 1.613-.668Zm-8.476-.5 4.532 1.51-.5.501c-.338.339-.664.686-.983 1.039l-3.05-3.05Zm.117 6.96-3.64-.91-.771.772c-.462-1.004-.973-1.842-1.524-2.497a15.969 15.969 0 0 1 6.008 2.522c-.024.039-.05.075-.073.113Zm-16.812-.953a16.113 16.113 0 0 1 4.694-1.695c-1.24 1.47-2.27 3.814-2.967 6.735h-3.9l1.02-1.531a6.997 6.997 0 0 0 1.153-3.51ZM2.609 8.428v-.194A5.632 5.632 0 0 1 8.234 2.61a5.632 5.632 0 0 1 5.625 5.625v.194a5.609 5.609 0 0 1-.945 3.12l-4.172 6.258c-.227.34-.789.34-1.016 0l-4.172-6.258a5.612 5.612 0 0 1-.945-3.12Zm4.237 15.275h9.137c.03 1.945.18 3.83.448 5.625H8.119a16.017 16.017 0 0 1-1.273-5.625Zm-.721 7.031h11.25a.704.704 0 0 1 0 1.407H6.125a.704.704 0 0 1 0-1.407Zm.703 2.813h10.113l2.109 4.219H9.372l-1.406-2.813H6.828v-1.406Zm9.647 9.844H8.692a6.09 6.09 0 0 1-6.083-6.083v-.949h4.488l1.406 2.813h13.762a6.11 6.11 0 0 1-5.79 4.219Zm9.593-4.514c1.24-1.47 2.27-3.816 2.968-6.736h.421c-.078.22-.129.455-.129.703v5.036a15.92 15.92 0 0 1-3.26.996Zm17.323 3.81a.704.704 0 0 1-.703.704h-11.25a.704.704 0 0 1-.704-.704v-9.843c0-.388.316-.703.703-.703h2.11v2.812h7.031v-2.812h2.11c.387 0 .703.315.703.703v9.843Z" fill="#4D7B7D"/><path d="M40.578 40.578h1.406v1.406h-1.406v-1.406Zm-2.812 0h1.406v1.406h-1.406v-1.406Zm-25.313-5.625h1.406v1.406h-1.406v-1.406Zm2.813 0h1.406v1.406h-1.406v-1.406Zm-5.626 0h1.407v1.406H9.64v-1.406Zm9.844-9.843h1.407v1.406h-1.407v-1.407Zm5.626 0h1.406v1.406h-1.407v-1.407Zm-2.813 0h1.406v1.406h-1.406v-1.407Zm2.813-5.626h1.406v1.407h-1.407v-1.407Zm-2.813 0h1.406v1.407h-1.406v-1.407Zm-2.813 0h1.407v1.407h-1.407v-1.407Z" fill="#4D7B7D"/></svg>
